X:44
T:Ar Gyfer Heddiw'r Bore
M:4/4
L:1/4
Q:160
C:Trad.
R:Plygain Carol
K:G
G2 | B A G F | G D G A | B2 G B
| A3 G | B A G F | E A G F | G2 -G G|
